!!!!SEGMENT: pl-wtm--r-1337--002_stefani-jozef--mazur.krn
!!!id: 18xx:1845
!!!COM: Stefani, Józef
!!!COM-rism: pe30024097
!!!CDT: 1800/04/16-1876/03/19
!!!CNT: Polish
!!!OTL: Mazur
!!!PDT:
!!!SMS-siglum: PL-Wtm
!!!SMS-shelfmark: R 1337
!!!NIFC-rismID: 1001119022
!!!URL-scan: http://repozytorium.nifc.pl/skany/pl-wtm-nut--r1337
!!!ONB-nifc: UWAGA: 2 Mazury w zeszycie. 002 na str. 4-6
!!!SMS-variant:
!!!SMS-altvar:
**kern	**kern	**dynam
*part2	*part1	*part1
*staff2	*staff1	*
*I"[Piano]	*I"[Piano]	*
*I'[pf]	*I'[pf]	*
*clefF4	*clefG2	*
*k[f#]	*k[f#]	*
*M3/8	*M3/8	*
*>[A,B,B,C,C,D,E,E,F]	*>[A,B,B,C,C,D,E,E,F]	*
=1	=1	=1
*>A	*>A	*>A
!	!LO:TX:a:t=P:problem:all\right	!LO:DY:b:rj
4.r	16.ggLL 16.g\	f
.	32ff#JJk 32f#\	.
.	8eeL 8e/	.
.	8ddJ 8d/	.
=2	=2	=2
16.GLL 16.GG/	16.eeLL 16.e/	.
32F#JJk 32FF#/	32ddJJk 32d/	.
8EL 8EE/	8ccL 8c/	.
8DJ 8DD/	8bJ 8B/	.
=3	=3	=3
(<8qCC/	(<8qA/	.
16.C/LL)	16.a/LL)	.
32BB/JJk	32g#XJJk 32e 32d/	.
8AA/L	8aL 8e 8c/	.
8GG#X/J	8bJ 8e/	.
=4	=4	=4
(>8qAA/	.	.
16.A\LL)	16.ccLL 16.a 16.e/	.
32Gn\JJk	32cc#XJJk 32a 32g 32e/	.
8F#\L	8ddL 8a 8d/	.
8F#|\J 8FF#\	8ccnJ 8a 8d/	.
=5	=5	=5
8G\ 8GG\	16bLL 16g 16d/	.
.	32r	.
.	(<32eeJJk 32cc/	.
8dL 8B 8G\	8ddL 8b/)	.
8dJ 8B 8G\	8bJ 8g'</	.
!!LO:LB:g=original
=6	=6	=6
*^	*	*
4.C/	8C\L	16.aaLL 16.ff#\	.
.	.	32ggJJk 32ee\	.
.	8c 8A 8E\	8eeL 8cc\	.
.	8cJ 8A 8E\	8ccJ 8a\	.
*v	*v	*	*
=7	=7	=7
8D 8DD/	16.aLL 16.f#\	.
.	32bK 32g\	.
8cL 8A 8D\	16.cc 16.a\	.
.	32ddK 32b\	.
8cJ 8A 8D\	16.ee 16.cc\	.
.	32ff#JJk 32a\	.
=8	=8	=8
8B 8G\	8gg 8b\	.
4d 4B 4G\	4g/	.
=9!|:	=9!|:	=9!|:
*>B	*>B	*>B
8D 8DD/	16.aaLL 16.ff#\	.
.	32aaJJk 32ff#\	.
8BL 8G#X 8E#X 8D\	8gg#XL 8ee#X\	.
8BJ 8G# 8E# 8D\	8bbt>\J	.
=10	=10	=10
.	(<32qqaa/LLL	.
.	32qqbb/	.
.	32qqccc#X/JJJ	.
8AL 8F# 8D\	16.ddd\LL)	.
.	32aaJJk 32ff#\	.
8B 8G#X 8E#X 8D\	8gg#XL 8ee#X\	.
!	!LO:TX:a:t=P:problem:w źródle tryl bez kasownika	!
8BJ 8G# 8E# 8D\	8bbt>\J	.
!!LO:LB:g=original
=11	=11	=11
*tremolo	*	*
.	(<8qgg#X/	.
8AL 8F# 8D\	16.aa\LL)	.
.	32ff#\JJk	.
8A 8F# 8D\	8dd\L	.
8AJ 8F# 8D\	8ff#\J	.
*Xtremolo	*	*
=12	=12	=12
.	(<8qdd#X/	.
8A 8E 8C#X 8AA\	16.ee\LL)	.
.	32cc#X\JJk	.
4A 4E 4C# 4AA\	4a/	.
=13	=13	=13
8AL 8F# 8D\	16.aaLL 16.ff#\	.
.	32aaJJk 32ff#\	.
8B 8G#X 8E#X 8D\	8gg#XL 8ee#X\	.
8BJ 8G# 8E# 8D\	8bbt>\J	.
=14	=14	=14
*rep	*	*
!LO:TX:a:t=P:problem:brak oznaczeń cyfrowych w źródle przy powtórzeniach	!	!
.	(<32qqaa/LLL	.
.	32qqbb/	.
.	32qqccc#X/JJJ	.
8AL 8F# 8D\	16.ddd\LL)	.
.	32ff#JJk 32dd\	.
8B 8G#X 8E#X 8D\	8gg#XL 8ee#X\	.
!	!LO:TX:a:t=P:problem:w źródle tryl bez kasownika	!
8BJ 8G# 8E# 8D\	8bbt>\J	.
*Xrep	*	*
=15	=15	=15
*tremolo	*Xtuplet	*
8AL 8F# 8D\	24aa'>\LL	.
.	(>24fff#\	.
.	24eee\JJ	.
8A 8F# 8D\	8ddd\L)	.
8AJ 8F# 8D\	8ff#'>\J	.
!!LO:LB:g=original
=16	=16	=16
.	(<8qaa/	.
8A 8C#X 8AA/	16.gg\LL)	.
.	32ee\JJk	.
4F# 4D\	4dd\	.
=17	=17	=17
4.r	16.ggLL 16.g\	.
.	32ff#JJk 32f#\	.
.	8eeL 8e/	.
.	8ddJ 8d/	.
=18	=18	=18
16.GLL 16.GG/	16.eeLL 16.e/	.
32F#JJk 32FF#/	32ddJJk 32d/	.
8EL 8EE/	8ccL 8c/	.
8DJ 8DD/	8bJ 8B/	.
=19	=19	=19
8qCC/	(<8qA/	.
16.C/LL	16.a/LL)	.
32BB/JJk	32g#XJJk 32e 32d/	.
8AA/L	8aL 8e 8c/	.
8GG#X/J	8bJ 8e/	.
=20	=20	=20
8qAA/	.	.
16.A\LL	16.ccLL 16.a 16.e/	.
32Gn\JJk	32cc#XJJk 32a 32e/	.
8F#/L	8ddL 8a 8d/	.
8F#J 8FF#/	8ccnJ 8a 8d/	.
!!LO:LB:g=original
=21	=21	=21
8G 8GG/	16bLL 16g 16d/	.
.	32r	.
.	(<32eeJJk 32cc/	.
*Xtremolo	*	*
8dL 8B 8G\	8ddL 8b/)	.
8dJ 8B 8G\	8bJ 8g'</	.
=22	=22	=22
*^	*	*
4.C/	8C\L	16.aaLL 16.ff#\	.
.	.	32ggJJk 32ee\	.
.	8c 8A 8E\	8eeL 8cc\	.
.	8cJ 8A 8E\	8ccJ 8a\	.
*v	*v	*	*
=23	=23	=23
8F# 8FF#/	16.aLL 16.f#/	.
.	32bK 32g/	.
8cL 8A 8D\	16.cc 16.a/	.
.	32ddK 32b/	.
8cJ 8A 8D\	16.ee 16.cc/	.
.	32ff#JJk 32a/	.
=24	=24	=24
8B 8G\	8gg 8b\	.
4d 4B 4G\	4g/	.
=25:|!|:	=25:|!|:	=25:|!|:
*>C	*>C	*>C
!	!	!LO:DY:b:rj
*tremolo	*	*
8BL 8G 8E\	16.ee\LL	p
.	32b\JJk	.
8B 8G 8E\	8gg\L	.
8BJ 8G 8E\	8ee\J	.
!!LO:LB:g=original
=26	=26	=26
8BL 8A 8F# 8D#X\	16.ff#\LL	.
.	32cc\K	.
8B 8A 8F# 8D#\	16.b\	.
.	32cc\JK	.
8BJ 8A 8F# 8D#\	8b\J	.
=27	=27	=27
8BL 8A 8F# 8D#X\	16.ff#\LL	.
.	32b\JJk	.
8B 8A 8F# 8D#\	8aa\L	.
8BJ 8A 8F# 8D#\	8ff#\J	.
=28	=28	=28
.	(<8qaa/	.
8BL 8G 8E\	16.gg\LL)	.
.	32ff#\K	.
8B 8G 8E\	16.gg\	.
.	32ff#\JK	.
8BJ 8G 8E\	8ee\J	.
*Xtremolo	*	*
=29	=29	=29
!	!	!LO:DY:b:rj
16.GLL 16.GG\	16.ggLL 16.b 16.g\	f
32BJJk 32BB\	32ff#JJk 32dd\	.
8cL 8C\	8eeL 8cc 8g\	.
8BJ 8BB\	8ddJ 8g\	.
=30	=30	=30
16.cLL 16.C\	16.eeLL 16.cc 16.g\	.
32BJJk 32BB\	32ddJJk 32g\	.
8AL 8AA/	8ccL 8f#/	.
8GJ 8GG/	8bJ 8g/	.
!!LO:PB:g=original
=31	=31	=31
8D 8DD/	16.aLL 16.f#\	.
.	32bK 32g\	.
8cL 8A 8D\	16.cc 16.a\	.
.	32ddK 32b\	.
8cJ 8A 8D\	16.ee 16.cc\	.
.	32ff#JJk 32a\	.
=32	=32	=32
8B 8G\	8gg 8b\	.
4d 4B 4G\	4g/	.
=33:|!	=33:|!	=33:|!
*>D	*>D	*>D
*k[]	*k[]	*
16.C\LL 16.CC\	16.eLL 16.c 16.G</	.
32C\JJk 32CC\	32eJJk 32c 32G</	.
8C\L 8CC\	8eL 8c 8G</	.
8C\J 8CC\	8eJ 8c 8G</	.
=34	=34	=34
*tremolo	*tremolo	*
8C\L 8CC\	8eL 8c 8G</	.
8C\ 8CC\	8e 8c 8G</	.
8C\J 8CC\	8eJ 8c 8G</	.
*Xtremolo	*Xtremolo	*
=35	=35	=35
*^	*	*
4.C/	8C\L	16.eeLL 16.cc\	.
.	.	32ff#XJJk 32dd#X\	.
.	8c 8G 8E\	8ggL 8ee\	.
.	8cJ 8A 8F#X\	8ff#J 8dd#\	.
!!LO:LB:g=original
=36	=36	=36	=36
.	.	(<8qaa 8qffn/	.
4.C/	8C\L	16.ggLL 16.ee\)	.
.	.	32ff#XJJk 32dd#X\	.
.	8c 8G 8E\	8ggL 8ee\	.
.	8cJ 8G 8E\	8eeJ 8cc\	.
=37	=37	=37	=37
4.C/	8C\L	16.aaLL 16.ff\	.
.	.	32bbJJk 32gg\	.
.	8c 8A 8F\	16ccc'>LL 16aa'\	.
.	.	(>32dddL 32bb\	.
.	.	32cccJJJ 32aa\	.
.	8cJ 8A 8F\	16bbLL 16gg\	.
.	.	16aaJJ 16ff\)	.
=38	=38	=38	=38
4.C/	8C\L	8gg 8ee\	.
.	8c 8G 8E\	4ee 4cc\	.
.	8cJ 8G 8E\	.	.
*v	*v	*	*
=39	=39	=39
8GL 8GG\	16.ffLL 16.dd\	.
.	32eeJJk 32cc\	.
8f 8d 8G\	8ddL 8b\	.
8fJ 8d 8G\	8bbJ 8gg 8ff 8dd\	.
=40	=40	=40
16.cLL 16.C\	16.cccLL 16.gg 16.ee\	.
32GJJk 32GG\	32dddJJk 32bb 32gg\	.
8cL 8C\	8eeeL 8ccc 8gg\	.
8EJ 8EE\	8ggJ 8cc\	.
!!LO:LB:g=original
=41	=41	=41
.	(<8qaa/	.
8G 8GG/	16.gg\LL)	.
.	32ff#X`>\JJk	.
8fL 8B 8G\	(>16aa\LL	.
.	16gg\)	.
8fJ 8B 8G\	16ffn'>\	.
.	16dd'>\JJ	.
=42	=42	=42
8e 8c\	8cc\	.
4c 4C\	4ccc 4gg 4ee\	.
=43!|:	=43!|:	=43!|:
*>E	*>E	*>E
*tremolo	*	*
!	!	!LO:DY:b:rj
8eL 8c 8A\	16.cccLL 16.cc\	p
.	32bbJJk 32b\	.
8e 8c 8A\	8aaL 8a\	.
8eJ 8c 8A\	8cccJ 8cc\	.
=44	=44	=44
8eL 8d 8B 8G#X\	16.eeeLL 16.ee\	.
.	32fffJJk 32ff\	.
8e 8d 8B 8G#\	8eeeL 8ee\	.
8eJ 8d 8B 8G#\	8bbJ 8b\	.
=45	=45	=45
8eL 8c 8A\	16.cccLL 16.cc\	.
.	32bbJJk 32b\	.
8e 8c 8A\	8aaL 8a\	.
8eJ 8c 8A\	8cccJ 8cc\	.
!!LO:LB:g=original
=46	=46	=46
8e 8B 8G#X 8E\	(>32gg#X\LLL	.
.	32ee\	.
.	32gg#\	.
.	32bb\JJJ)	.
!	!	!LO:DY:b:rj
4e 4B 4G# 4E\	4eee 4gg# 4ee\	f
=47	=47	=47
8dL 8A 8F 8D\	16.fffLL 16.ff\	.
.	32eeeJJk 32ee\	.
8d 8A 8F 8D\	8dddL 8dd\	.
8dJ 8A 8F 8D\	8fffJ 8ff\	.
=48	=48	=48
8cL 8A 8E\	16.eeeLL 16.ee\	.
.	32ddd#XJJk 32dd#X\	.
8c 8A 8E\	8eeeL 8ee\	.
8cJ 8A 8E\	8aaJ 8a\	.
*Xtremolo	*	*
=49	=49	=49
8dL 8B 8E\	16.gg#XLL 16.g#X'>\	.
.	32ffJJk 32f'>\	.
8d 8B 8E\	16eeLL 16e'>/	.
.	(<16dd/	.
8dJ 8G#X 8E\	16cc/	.
.	16b/JJ)	.
=50	=50	=50
.	8qb/	.
8cL 8A\	16.a/LL	.
.	32g#X/JJk	.
8cJ 8A\	8a/	.
8A 8AA/	8aa 8cc 8a\	.
=51	=51	=51
*^	*	*
!LO:TX:a:t=P:problem:brak kaudy	!	!	!
4.C/	8C\L	16.eeLL 16.cc\	.
.	.	32ff#XJJk 32dd#X\	.
.	8c 8G 8E\	8ggL 8ee\	.
.	8cJ 8A 8F#X\	8ff#J 8dd#\	.
=52	=52	=52	=52
.	.	8qaan 8qff/	.
4.C/	8C\L	16.ggLL 16.ee\	.
.	.	32ff#XJJk 32dd#X\	.
.	8c 8G 8E\	8ggL 8ee\	.
.	8cJ 8G 8E\	8eeJ 8cc\	.
!!LO:LB:g=original
=53	=53	=53	=53
4.C/	8C\L	16.aaLL 16.ff'>\	.
.	.	32bbJJk 32gg'>\	.
.	8c 8A 8F\	16cccLL 16aa'>\	.
.	.	(>32dddL 32bb\	.
.	.	32cccJJJ 32aa\	.
.	8cJ 8A 8F\	16bbLL 16gg\	.
.	.	16aaJJ 16ff\)	.
=54	=54	=54	=54
4.C/	8C\L	8gg 8ee\	.
.	8c 8G 8E\	4ee 4cc\	.
.	8cJ 8G 8E\	.	.
*v	*v	*	*
=55	=55	=55
8G 8GG/	16.ffLL 16.dd\	.
.	32eeJJk 32cc\	.
8fL 8d 8G\	8ddL 8b\	.
8fJ 8d 8G\	8bb 8gg 8dd\J	.
=56	=56	=56
16.cLL 16.C\	16.cccLL 16.gg 16.ee\	.
32GJJk 32GG\	32dddJJk 32bb 32gg\	.
8cL 8C\	8eeeL 8ccc 8gg\	.
8EJ 8EE\	8ggJ 8cc\	.
!!LO:LB:g=original
=57	=57	=57
.	(<8qaa/	.
8G 8GG/	16.gg\LL)	.
.	32ff#X\JJk	.
8fL 8d 8B 8G\	(>16aa\LL	.
.	16gg\)	.
8fJ 8d 8B 8G\	16ffn'>\	.
.	16dd'>\JJ	.
=58	=58	=58
8e 8c\	8cc\	.
4c 4C\	4ccc 4gg 4ee\	.
!!LO:PB:g=original
=59:|!	=59:|!	=59:|!
*>F	*>F	*>F
*k[f#]	*k[f#]	*
!	!	!LO:DY:b:rj
16.GLL 16.GG\	16.ggLL 16.b 16.g\	f
32BJJk 32BB\	32ff#JJk 32dd\	.
8cL 8C\	8eeL 8cc\	.
8BJ 8BB\	8ddJ 8g\	.
=60	=60	=60
16.cLL 16.C\	16.eeLL 16.cc 16.g\	.
32BJJk 32BB\	32ddJJk 32g\	.
8AL 8AA/	8ccL 8f# 8d/	.
8GJ 8GG/	8bJ 8g 8d/	.
=61	=61	=61
*tremolo	*	*
8DL 8DD/	16.aLL 16.f#\	.
.	32bK 32g\	.
8D 8DD/	16.cc 16.a\	.
.	32ddK 32b\	.
8DJ 8DD/	16.ee 16.cc\	.
.	32ff#JJk 32dd 32a\	.
*Xtremolo	*	*
=62	=62	=62
8GL 8GG/	8ggL 8dd 8b\	.
8D 8DD/	8aa 8ff# 8dd\	.
8GJ 8GG/	8bbJ 8gg 8dd\	.
=63	=63	=63
16.ALL 16.AA\	16.cccLL 16.ee 16.cc\	.
32dJJk 32D\	32gg#XJJk 32ee 32b\	.
8cL 8C\	8aaL 8ee 8a\	.
8c#XJ 8C#X\	8ggnJ 8ee 8a\	.
!!LO:LB:g=original
=64	=64	=64
8dL 8D\	8ff#L 8dd 8a\	.
8A 8AA\	8ee 8cc#X 8a 8g\	.
8dJ 8D\	8ddJ 8a 8f#\	.
=65	=65	=65
8A 8AA\	16.cc#XLL 16.a 16.e\	.
.	32bb\JJk	.
8gL 8c#X 8A\	16.aa\LL	.
.	32gg\K	.
8gJ 8c# 8A\	16.ff#\	.
.	32ee\JJk	.
=66	=66	=66
8f#L 8d\	8dd\L	.
8cn 8C\	8ee 8ccn 8g\	.
8AJ 8AA\	8ff#J 8dd 8cc 8a\	.
=67	=67	=67
16.GLL 16.GG\	16.ggLL 16.dd 16.b\	.
32BJJk 32BB\	32ff#JJk 32dd\	.
8cL 8C\	8eeL 8cc\	.
8BJ 8BB\	8ddJ 8g\	.
=68	=68	=68
16.cLL 16.C\	16.eeLL 16.cc 16.g\	.
32BJJk 32BB\	32ddJJk 32g\	.
8A/L 8AA/	8ccL 8f# 8d/	.
8G/J 8GG/	8bJ 8g 8d/	.
!!LO:LB:g=original
=69	=69	=69
*tremolo	*	*
8DL 8DD/	16.aLL 16.f#\	.
.	32bK 32g\	.
8D 8DD/	16.cc 16.a\	.
.	32ddK 32b\	.
8DJ 8DD/	16.ee 16.cc\	.
.	32ff#JJk 32dd 32a\	.
*Xtremolo	*	*
=70	=70	=70
16GLL 16GG/	16ggLL 16dd 16b\	.
16D/	16ff# 16dd 16a\	.
16G 16GG/	16gg 16dd 16b\	.
16D/J	16aaJ 16ff# 16dd\	.
8GJ 8GG/	8bbJ 8gg 8dd\	.
=71	=71	=71
16.ALL 16.AA\	16.cccLL 16.ee 16.cc\	.
32dJJk 32D\	32gg#XJJk 32ee 32b\	.
8cL 8C\	8aaL 8ee 8a\	.
8cJ 8C\	8ee-X^<J 8a\	.
=72	=72	=72
8d 8D\	16ddLL 16b'>\	.
.	(>32gg\L	.
.	32bb\JJJ	.
8dL 8B 8G 8D\	8ddd\L)	.
8dJ 8B 8G 8D\	8gg'>\J	.
!!LO:LB:g=original
=73	=73	=73
*	*tuplet	*
!	!LO:TUP:a:problem:klamra łukowa	!
8c#X 8A#X 8G 8D\	24eee\LL	.
.	24ddd\	.
.	24ccc#X\JJ	.
8dL 8B 8G 8D\	8ddd\L	.
8dJ 8B 8G 8D\	8bb\J	.
=74	=74	=74
*tremolo	*	*
8cL 8A 8D\	(>16eee\LL	.
.	16ddd\JJ)	.
8c 8A 8D\	(>16ccc\LL	.
.	16aa\JJ)	.
8cJ 8A 8D\	(>16ee\LL	.
.	16ff#\JJ)	.
*Xtremolo	*	*
=75	=75	=75
16GLL 16GG/	16ggLL 16dd 16b\	.
16D/	16ff# 16dd 16a\	.
16G 16GG/	16gg 16dd 16b\	.
16D/J	16aaJ 16ff# 16dd\	.
8GJ 8GG/	8bbJ 8gg 8dd\	.
=76	=76	=76
*tremolo	*	*
8cL 8A 8D\	(>16eee\LL	.
.	16ddd\JJ)	.
8c 8A 8D\	(>16ccc\LL	.
.	16aa\JJ)	.
8cJ 8A 8D\	(>16ee\LL	.
.	16ff#\JJ)	.
*Xtremolo	*	*
!!LO:LB:g=original
=77	=77	=77
8B 8G\	8gg\	.
8r	8r	.
8r	8r	.
=78	=78	=78
!	!	!LO:DY:b:rj
16dLL 16D\	16aaLL 16ff#\	ff
16c#X 16C#X\	16bb 16gg\	.
16cn 16Cn\	16ccc 16aa\	.
16B 16BB\	16ddd 16bb\	.
16A 16AA\	16eee 16ccc\	.
16DJJ 16DD\	16fff#JJ 16ddd 16aa\	.
=79	=79	=79
8G 8GG\	8ggg 8ddd 8bb\	.
4G 4GG\	4gg 4dd 4b\	.
==	==	==
*-	*-	*-
!!!system-decoration: [(s1,s2)]
!!!RDF**kern: | = vertical stroke
!!!RDF**kern: > = above
!!!RDF**kern: < = below
!!!EED: Antoni Szymański
!!!EST: 2021-05-03
!!!ENC: Krzysztof Stępień
!!!END: 2021-04-10
